home-floor-0.svg

<svg fill="currentColor" viewBox="0 0 24 24"><path d="M11 10h2v6h-2zm11 2h-3v8H5v-8H2l10-9zm-7-2a2 2 0 0 0-2-2h-2a2 2 0 0 0-2 2v6a2 2 0 0 0 2 2h2a2 2 0 0 0 2-2z"/></svg>

<svg  viewBox="0 0 24 24" fill="currentColor"><path  d="M11,10H13V16H11V10M22,12H19V20H5V12H2L12,3L22,12M15,10A2,2 0 0,0 13,8H11A2,2 0 0,0 9,10V16A2,2 0 0,0 11,18H13A2,2 0 0,0 15,16V10Z"/></svg>
